X:3
T:Bnis sois-tu, Seigneur - K520
C:M. et M.F. Penhard
M:4/4
L:1/8
K:G
"Sol"D2DD"Do"E3E|E2E2"Re"F4|"Si"B2BA"Mim"G2GG|"Do"c2B2"Re4/3"A2A2|
"Sol"D2DDE2EE|E2E2F2FF|BB BAG2GG|c2cBA3G|G6z2||
"Lam"A2AA"Re"A3c|"Si"B2BA"Mim"G3G|"Do"EE EE"Sim"D3D|"Do"EG"Sol"G6||
